X:17
T:Star of the County Down
C:Interlude by Bernie Waugh, a la Ralph Vaughan Williams
S:Bernie Waugh
R:Waltz
M:3/4
L:1/4
K:Am
|:cB|\
"Am"[E2A2]A|"F"[FA]>GA|"C"[E2c2]c|"G"[G2d2]c/d/|\
"C"e>dc|AGE|"Em"G3-|GcB|
"Am"A2A|"F"A>GA|"C"c2c|"G"d2c/d/|\
"C"e>dc|"F"A2G|"Am"A3-|A:|
|:de|\
"C"g2e|e>dc|"G"d2d|"Em"e2c/d/|\
"C"e>dc|AGE|"G"G3-|"Em"GcB|
"Am"A2A|"F"A>GA|"C"c2c|"G"d2c/d/|\
"C"e>dc|"F"A2G|"Am"A3-|A:|
K:C Dorian
zG|\
"Cm"c2B|"Ab"c2d|"Eb"e2f|"Gm"g2e/f/|\
"Eb"g>fe|dcG|"F"B>cA|"Gm"GAB|
"Cm"c2d|"Gm"B>AG|"Eb"e2f|"Gm"g2f|\
"Cm"e>dc|"Ab"efd|"Cm"c3-|c||
ga|\
"Bb"b2a|"Eb"g2e|"Dm"fba|"Gm"g2e/f/|\
"Cm"g>fe|"Gm"dcG|"F"B>cA|"Gm"G>AB|
"Cm"c2d|"Gm"B>AG|"Eb"e2f|"Gm"d>ef|\
"Ab"g2a|"Gm"b>c'g|"F-->"fed|"E7"c|]

